X:41
T:Ductie
C:Anon. 
L:1/8
K:C
V:1
c2B/A/ G2"b"B | d2A B3 | c2B/A/ G2F | A2F G2A |
c2c BLAG | A2F G2A | c2c B/A/GF | A2B c2z |
c2d c2A | B2G A2B | c2d c2A | B2A G2z |
A2B c2c | BLAG A3 | A2B c2c | BLAB c2z |
cBc d2d | cL"b"Bc/"="B/ A3 | cBc d2d | cLBA c2z |
cBc d2d | cL"b"Bc/"="B/ A3 | cBc d2B | c2"b"B/A/G2z |
f2e dLBc | d2c e2c | f2e d2c/"b"B/ | A2B c2z |
f2e dLec | d2c e2c | f2e dLec | d2B c2z |
c2d f2d | e2c d2z | c2d f2d | e2f/e/ d2z |
fed c2A | B2c d2e | fLed cL"b"BG | A2B c2z |
fef g2e | f2g a2g | fLef g2e | fLef g2z |
fef g2e | fLec d2e | fLec d2e | cLAB c2z |]
V:2
C2E G2F | D2F E2z | C2E G2F | D2E C2z |
C2E G2F | D2F E2z | C2E G2F | D2E C2z |
F2E F2z | E2F D2z | F2E F2z | E3 G2z |
F2E F2z | E2F D2z | F2E F2z | E2D C2z |
FGA G2G | F2E D2z | FGA G2A | FED C2z |
FGA G2A | F2E D2z | FGA G2G | FLEF G2z |
C2E G2F | D2F E2z | C2E G2F | D2E C2z |
C2E G2F | D2F E2z | C2E G2F | D2E C2z |
F2E F2z | E2F D2z | F2E F2z | E3 G2z |
F2E F2z | E2F D2z | F2E F2z | E2D C2z |
FGA G2A | F2E D3 | FGA G2A | FLED C2z |
FGA G2A | F2E D2z | FGA G2A | FLED C2z |]







